X:2447
T:Handsome Young Maidens, The
O:england
M:6/8
L:1/8
Q:140
C:Charlie Lennon
R:jig
K:AMaj
g|:aec dcB|Ace ~a3|bee dee|Bee bag|
aec dcB|Ace ~a3|bee dee|1BAG A2g:|2BAG A2B|
:c2 A cde|~d3 fed|cde aec|~B3 fed|
c2 A cde|~d3 fed|1cde aec|
BAG A2B:|2~e3 ~f3|~g3 bag||
